!!!COM: (Edward) Benjamin Britten
!!!OTL: [T819_Bri-w40p190h108m1-8]
**kern	**dynam	**kern	**dynam	**kern	**dynam	**kern	**dynam	**kern	**dynam	**kern	**dynam	**kern	**text	**dynam	**kern	**kern	**dynam	**kern	**dynam	**kern	**kern	**dynam	**kern
*part12	*part12	*part11	*part11	*part10	*part10	*part9	*part9	*part8	*part8	*part7	*part7	*part6	*part6	*part6	*part5	*part5	*part5	*part4	*part4	*part3	*part2	*part2	*part1
*staff13	*	*staff12	*	*staff11	*	*staff10	*	*staff9	*	*staff8	*	*staff7	*staff7	*	*staff6	*staff5	*	*staff4	*	*staff3	*staff2	*	*staff1
*I"Contrabass	*	*I"Violoncello	*	*I"Viola	*	*I"Violin II	*	*I"Violin I	*	*I"Bass	*	*I"Soprano Solo	*	*	*I"Piano	*	*	*I"Bass Drum	*	*I"Bassoons I.II.	*I"Oboes I.II.	*	*I"Flutes I.II.
*I'Cb.	*	*I'Vc.	*	*I'Vla.	*	*I'Vln. II	*	*I'Vln. I	*	*I'B.	*	*I'S. Solo	*	*	*I'Pno.	*	*	*I'B. D.	*	*I'Bsn.	*I'Ob.	*	*I'Fl.
*	*	*	*	*	*	*	*	*	*	*	*	*	*	*	*	*	*	*stria1	*	*	*	*	*
*clefF4	*	*clefF4	*	*clefC3	*	*clefG2	*	*clefG2	*	*clefF4	*	*clefG2	*	*	*clefF4	*clefF4	*	*clefX	*	*clefF4	*clefG2	*	*clefG2
*Trd0c0	*	*	*	*	*	*	*	*	*	*	*	*	*	*	*	*	*	*	*	*	*	*	*
*k[b-e-]	*	*k[b-e-]	*	*k[b-e-]	*	*k[b-e-]	*	*k[b-e-]	*	*k[b-e-]	*	*k[b-e-]	*	*	*k[b-e-]	*k[b-e-]	*	*k[]	*	*k[b-e-]	*k[b-e-]	*	*k[b-e-]
*B-:	*	*B-:	*	*B-:	*	*B-:	*	*B-:	*	*B-:	*	*B-:	*	*	*B-:	*B-:	*	*	*	*B-:	*B-:	*	*B-:
*M3/4	*	*M3/4	*	*M3/4	*	*M3/4	*	*M3/4	*	*M4/4	*	*M4/4	*	*	*M3/4	*M3/4	*	*M3/4	*	*M3/4	*M3/4	*	*M3/4
*MM264	*	*MM264	*	*MM264	*	*MM264	*	*MM264	*	*MM264	*	*MM264	*	*	*MM264	*MM264	*	*MM264	*	*MM264	*MM264	*	*MM264
=1	=1	=1	=1	=1	=1	=1	=1	=1	=1	=1	=1	=1	=1	=1	=1	=1	=1	=1	=1	=1	=1	=1	=1
*^	*	*^	*	*^	*	*	*	*	*	*	*	*	*	*	*	*	*	*	*	*	*	*	*
!LO:TX:b:t=div. 1. arco spiccato        2. pizz.	!	!	!LO:TX:b:t=div. 1. arco spiccato        2. pizz.	!	!	!LO:TX:b:t=div. 1. arco spiccato        2. pizz.	!	!	!	!	!	!	!LO:TX:b:t=[ppp]	!	!	!	!	!	!	!	!	!	!	!	!	!
*v	*v	*	*	*	*	*v	*v	*	*	*	*	*	*	*	*	*	*	*	*	*	*	*	*	*	*	*
*	*	*v	*v	*	*	*	*	*	*	*	*	*	*	*	*	*	*	*	*	*	*	*	*	*
*	*	*	*	*	*	*	*	*	*	*Xtuplet	*	*	*	*	*	*	*	*	*	*	*	*	*
*^	*	*^	*	*^	*	*	*	*	*	*	*	*	*	*	*	*	*	*	*	*	*	*	*
!	!	!	!	!	!	!	!	!	!	!	!	!	!	!	!LO:TX:a:i:t=rather	!	!	!	!	!	!	!	!	!	!	!
*v	*v	*	*	*	*	*v	*v	*	*	*	*	*	*	*	*	*	*	*	*	*	*	*	*	*	*	*
*	*	*v	*v	*	*	*	*	*	*	*	*	*	*	*	*	*	*	*	*	*	*	*	*	*
*	*	*	*	*	*	*	*	*	*	*	*	*Xtuplet	*	*	*	*	*	*	*	*	*	*	*
*^	*	*^	*	*^	*	*	*	*	*	*	*	*	*	*	*	*	*	*	*	*	*	*	*
!	!	!	!	!	!	!	!	!	!	!	!	!	!	!	!	!	!	!	!	!	!	!	!	!	!	!LO:TX:b:t=[pp]
!	!	!	!	!	!	!	!	!	!	!	!	!	!	!LO:DY:a	!	!	!LO:DY:a	!	!LO:TX:b:i:t=short(without Ped.)	!	!LO:TX:b:t=[ppp]	!	!LO:TX:b:t=[ppp]	!	!	!LO:TX:a:B:t=108
4GG#X`v	4GG#	pp	4GG#X`v	4GG#	pp	4G#X`v	4G#	pp	2.r	.	2.r	.	8%3AA]	>	8%3een'	Tre-	p	4GGG#X`	4G#X`	pp	4Re/`	pp	4AA 4a	[2.a [2.een	pp	4eenX]
4AA`	4AA	.	4AA`	4AA	.	4A`	4A	.	.	.	.	.	.	.	.	.	.	4AAA`	4A`	.	4r	.	4r	.	.	4r
.	.	.	.	.	.	.	.	.	.	.	.	.	8%3r	]	8%3a'	-mens..	.	.	.	.	.	.	.	.	.	.
4BBn`	4BB	.	4BBn`	4BB	.	4Bn`	4B	.	.	.	.	.	.	.	.	.	.	4BBBn`	4Bn`	.	4r	.	4r	.	.	4r
=	=	=	=	=	=	=	=	=	=	=	=	=	=-	=	=-	=	=	=	=	=	=	=	=	=	=	=
8F^L	4r	.	8F^L	4r	.	8f^L	4rD	.	2.r	.	2.r	.	4r	.	4%3r	.	.	8FF^L	8F^L 8f	.	8Re/L^	.	2.r	2.a_ 2.ee_	.	2.r
8AA^J	.	.	8AA^J	.	.	8A^J	.	.	.	.	.	.	.	.	.	.	.	8AAA^J 8AA	8A^J	.	8Re/J^	.	.	.	.	.
4En^	4r	.	4En^	4r	.	4en^	4rD	.	.	.	.	.	2ryy	.	.	.	.	4EEn^	4En^ 4en	.	4Re/^	.	.	.	.	.
4GG#X`	4GG#	.	4GG#X`	4GG#	.	4G#X`	4G#	.	.	.	.	.	.	.	.	.	.	4GGG#X`	4G#X`	.	4r	.	.	.	.	.
=	=	=	=	=	=	=	=	=	=	=	=	=	=-	=	=-	=	=	=	=	=	=	=	=	=	=	=
4AA`	4AA	.	4AA`	4AA	.	4A`	4A	.	2.r	.	2.r	.	2r	.	8%3een'	fac-	.	4AAA`	4A`	.	4Re/`	.	2.r	2.a_ 2.ee_	.	2.r
4BBn`	4BB	.	4BBn`	4BB	.	4Bn`	4B	.	.	.	.	.	.	.	.	.	.	4BBBn`	4Bn`	.	4r	.	.	.	.	.
.	.	.	.	.	.	.	.	.	.	.	.	.	.	.	8%3a'	-tus..	.	.	.	.	.	.	.	.	.	.
8C#X^L	4r	.	8C#X^L	4r	.	8c#X^L	4rD	.	.	.	.	.	4ryy	.	.	.	.	8CC#X^L	8c#X^L	.	8Re/L^	.	.	.	.	.
8G#X^J	.	.	8G#X^J	.	.	8g#X^J	.	.	.	.	.	.	.	.	.	.	.	8GG#X^J	8G#X^J 8g#X	.	8Re/J^	.	.	.	.	.
=	=	=	=	=	=	=	=	=	=	=	=	=	=-	=	=-	=	=	=	=	=	=	=	=	=	=	=
4F#X^	4rEE	.	4F#X^	4rEE	.	4f#X^	4rD	.	2.r	.	2.r	.	2.ryy	.	8%3r	.	.	4FF#X^	4F#X^ 4f#X	<	4Re/^	.	2.r	2.a_ 2.ee_	.	2.r
4AA#X`	4AA#	.	4AA#X`	4AA#	.	4A#X`	4A#	.	.	.	.	.	.	.	.	.	.	4AAA#X`	4A#X`	.	4r	.	.	.	.	.
.	.	.	.	.	.	.	.	.	.	.	.	.	.	.	8%3ff'	sum	.	.	.	.	.	.	.	.	.	.
4BB#X`	4BB#	.	4BB#X`	4BB#	.	4B#X`	4B#	.	.	.	.	.	.	.	.	.	.	4BBB#X`	4B#X`	.	4Re/`	.	.	.	.	.
*	*	*	*	*	*	*	*	*	*	*	*	*	*	*	*	*	*	*	*clefG2	*	*	*	*	*	*	*
=	=	=	=	=	=	=	=	=	=	=	=	=	=	=	=	=	=	=	=	=	=	=	=	=	=	=
!	!	!LO:DY:a	!	!	!LO:DY:a	!	!	!LO:DY:a	!	!	!	!	!	!	!	!	!LO:DY:a	!	!	!	!	!	!	!	!	!
4C#X`	4C#	< <	4C#X`	4C#	< <	4c#X`	4c#	< <	2.r	.	2.r	.	2.r	.	8%3een'	e-	<	4CC#X`	4c#X`	.	4r	.	2.r	2.a_ 2.ee_	.	2.r
4D#X`	4D#	.	4D#X`	4D#	.	4d#X`	4d#	.	.	.	.	.	.	.	.	.	.	4DD#X`	4d#X`	.	4Re/`	<	.	.	.	.
.	.	.	.	.	.	.	.	.	.	.	.	.	.	.	8%3a'	-go..	[	.	.	.	.	.	.	.	.	.
4E#X`	4E#	.	4E#X`	4E#	.	4e#X`	4e#	.	.	.	.	.	.	.	.	.	.	4EE#X`	4e#X`	[[	4Re/`	[[	.	.	.	.
=	=	=	=	=	=	=	=	=	=	=	=	=	=	=	=-	=	=	=	=	=	=	=	=	=	=	=
8B#X^L	4B#^	[ [	8B#X^L	4B#^	[ [	8b#X^L	4b#^	[ [	2.r	.	2.r	.	2.r	.	4%3r	.	.	8BB#X^L	8B#X^L 8b#X	.	8Re/L^	p	2.r	2.a_ 2.ee_	.	2.r
8E#X^J	.	.	8E#X^J	.	.	8e#X^J	.	.	.	.	.	.	.	.	.	.	.	8EE#X^J	8e#X^J	.	8Re/J^	.	.	.	.	.
4A#X^	4r	.	4A#X^	4r	.	4a#X^	4r	.	.	.	.	.	.	.	.	.	.	4AA#X^	4A#X^ 4a#X	.	4Re/^	.	.	.	.	.
!LO:TX:b:i:t=dim.	!	!	!LO:TX:b:i:t=dim.	!	!	!LO:TX:b:i:t=dim.	!	!	!	!	!	!	!	!	!	!	!	!	!	!	!	!	!	!	!	!
!LO:TX:a:t=dim.	!	!	!LO:TX:a:t=dim.	!	!	!LO:TX:a:t=dim.	!	!	!	!	!	!	!	!	!	!	!	!	!LO:TX:b:i:t=dim.	!	!	!	!	!	!	!
4G#X`	4G#	.	4G#X`	4G#	.	4g#X`	4g#	.	.	.	.	.	.	.	.	.	.	4GG#X`	4g#X`	.	4r	.	.	.	.	.
=	=	=	=	=	=	=	=	=	=	=	=	=	=	=	=-	=	=	=	=	=	=	=	=	=	=	=
!	!	!	!	!	!	!	!	!	!	!	!	!	!	!	!	!	!LO:DY:a	!	!	!	!	!	!	!	!	!
4G`	4G	.	4G`	4G	.	4g`	4g	.	2.r	.	2.r	.	2.r	.	8%3een'	e-	pp	4GGn`	4gn`	.	4Re/`	>	2.r	2.a_ 2.ee_	.	2.r
4Fni`	4F	.	4Fni`	4F	.	4fni`	4f	.	.	.	.	.	.	.	.	.	.	4FF`	4f`	.	4r	.	.	.	.	.
.	.	.	.	.	.	.	.	.	.	.	.	.	.	.	8%3a'	-go..	.	.	.	.	.	.	.	.	.	.
8E-^L	4rEE	.	8E-^L	4r	.	8e-^L	4r	.	.	.	.	.	.	.	.	.	.	8EE-X^L	4e-X`	.	8Re/L^	.	.	.	.	.
8AA-X^J	.	.	8AA-X^J	.	.	8A-X^J	.	.	.	.	.	.	.	.	.	.	.	8AAA-X^J 8AA-X	.	.	8Re/J^	.	.	.	.	.
=	=	=	=	=	=	=	=	=	=	=	=	=	=	=	=-	=	=	=	=	=	=	=	=	=	=	=
*	*	*	*	*	*	*	*	*	*^	*	*^	*	*	*	*	*	*	*	*	*	*	*	*	*	*	*
!	!	!LO:DY:a	!	!	!LO:DY:a	!	!	!LO:DY:a	!LO:TX:b:t=div. 1. arco spiccato        2. pizz.	!	!LO:DY:a	!LO:TX:b:t=div. 1. arco spiccato        2. pizz.	!	!LO:DY:a	!	!	!	!	!	!	!	!	!	!	!	!	!	!
4D-X^	4D-	> >	4D-X^	4D-	> >	4d-X^	4d-	> >	4a^u	4a	pp >	4aa`u	4aa	pp >	2.r	.	8%3r	.	.	4DD-X^	4aan`	pp <	4Re/^	.	2.r	2.a_ 2.ee_	.	2.r
4C#X`	4C#	.	4C#X`	4C#	.	4c#X`	4c#	.	4cc#X`	4cc#	.	4ccc#X`	4ccc#	>	.	.	.	.	.	4CCX`	4ccc#X`	.	4r	.	.	.	.	.
!	!	!	!	!	!	!	!	!	!	!	!	!	!	!	!	!	!LO:TX:a:t=cresc.	!	!	!	!	!	!	!	!	!	!	!
.	.	.	.	.	.	.	.	.	.	.	.	.	.	.	.	.	8%3een'	et	.	.	.	.	.	.	.	.	.	.
4BB-Xi`	4BB-	.	4BB-Xi`	4BB-	.	4B-Xi`	4B-	.	4bn`	4b	.	4bbn`	4bb	.	.	.	.	.	.	4BBB-`	4bbn`	[[	4Re/`	]]	.	.	.	.
*v	*v	*	*	*	*	*v	*v	*	*v	*v	*	*v	*v	*	*	*	*	*	*	*	*	*	*	*	*	*	*	*
*	*	*v	*v	*	*	*	*	*	*	*	*	*	*	*	*	*	*	*	*	*	*	*	*	*
==	==	==	==	==	==	==	==	==	==	==	==	==	==	==	==	==	==	==	==	==	==	==	==
*-	*-	*-	*-	*-	*-	*-	*-	*-	*-	*-	*-	*-	*-	*-	*-	*-	*-	*-	*-	*-	*-	*-	*-
!!!system-decoration: [(s1,s2,s3)]s4{(s5,s6)}[(s7,s8)][(s9,s10,s11,s12,s13)]
!!!RDF**kern: i = editorial accidental
!!!COM: (Edward) Benjamin Britten
!!!OTL: [T819_Bri-w40p190h108m1-8]
**kern	**dynam	**kern	**dynam	**kern	**dynam	**kern	**dynam	**kern	**dynam	**kern	**dynam	**kern	**text	**dynam	**kern	**kern	**dynam	**kern	**dynam	**kern	**kern	**dynam	**kern
*part12	*part12	*part11	*part11	*part10	*part10	*part9	*part9	*part8	*part8	*part7	*part7	*part6	*part6	*part6	*part5	*part5	*part5	*part4	*part4	*part3	*part2	*part2	*part1
*staff13	*	*staff12	*	*staff11	*	*staff10	*	*staff9	*	*staff8	*	*staff7	*staff7	*	*staff6	*staff5	*	*staff4	*	*staff3	*staff2	*	*staff1
*I"Contrabass	*	*I"Violoncello	*	*I"Viola	*	*I"Violin II	*	*I"Violin I	*	*I"Bass	*	*I"Soprano Solo	*	*	*I"Piano	*	*	*I"Bass Drum	*	*I"Bassoons I.II.	*I"Oboes I.II.	*	*I"Flutes I.II.
*I'Cb.	*	*I'Vc.	*	*I'Vla.	*	*I'Vln. II	*	*I'Vln. I	*	*I'B.	*	*I'S. Solo	*	*	*I'Pno.	*	*	*I'B. D.	*	*I'Bsn.	*I'Ob.	*	*I'Fl.
*	*	*	*	*	*	*	*	*	*	*	*	*	*	*	*	*	*	*stria1	*	*	*	*	*
*clefF4	*	*clefF4	*	*clefC3	*	*clefG2	*	*clefG2	*	*clefF4	*	*clefG2	*	*	*clefF4	*clefF4	*	*clefX	*	*clefF4	*clefG2	*	*clefG2
*Trd0c0	*	*	*	*	*	*	*	*	*	*	*	*	*	*	*	*	*	*	*	*	*	*	*
*k[b-e-]	*	*k[b-e-]	*	*k[b-e-]	*	*k[b-e-]	*	*k[b-e-]	*	*k[b-e-]	*	*k[b-e-]	*	*	*k[b-e-]	*k[b-e-]	*	*k[]	*	*k[b-e-]	*k[b-e-]	*	*k[b-e-]
*B-:	*	*B-:	*	*B-:	*	*B-:	*	*B-:	*	*B-:	*	*B-:	*	*	*B-:	*B-:	*	*	*	*B-:	*B-:	*	*B-:
*M3/4	*	*M3/4	*	*M3/4	*	*M3/4	*	*M3/4	*	*M3/4	*	*M3/4	*	*	*M3/4	*M3/4	*	*M3/4	*	*M3/4	*M3/4	*	*M3/4
=1	=1	=1	=1	=1	=1	=1	=1	=1	=1	=1	=1	=1	=1	=1	=1	=1	=1	=1	=1	=1	=1	=1	=1
*^	*	*^	*	*^	*	*	*	*	*	*	*	*	*	*	*	*	*	*	*	*	*	*	*
!LO:TX:b:t=div. 1. arco spiccato        2. pizz.	!	!	!LO:TX:b:t=div. 1. arco spiccato        2. pizz.	!	!	!LO:TX:b:t=div. 1. arco spiccato        2. pizz.	!	!	!	!	!	!	!LO:TX:b:t=[ppp]	!	!	!	!	!	!	!	!	!	!	!	!	!
*v	*v	*	*	*	*	*v	*v	*	*	*	*	*	*	*	*	*	*	*	*	*	*	*	*	*	*	*
*	*	*v	*v	*	*	*	*	*	*	*	*	*	*	*	*	*	*	*	*	*	*	*	*	*
*	*	*	*	*	*	*	*	*	*	*Xtuplet	*	*	*	*	*	*	*	*	*	*	*	*	*
*^	*	*^	*	*^	*	*	*	*	*	*	*	*	*	*	*	*	*	*	*	*	*	*	*
!	!	!	!	!	!	!	!	!	!	!	!	!	!	!	!LO:TX:a:i:t=rather	!	!	!	!	!	!	!	!	!	!	!
*v	*v	*	*	*	*	*v	*v	*	*	*	*	*	*	*	*	*	*	*	*	*	*	*	*	*	*	*
*	*	*v	*v	*	*	*	*	*	*	*	*	*	*	*	*	*	*	*	*	*	*	*	*	*
*	*	*	*	*	*	*	*	*	*	*	*	*Xtuplet	*	*	*	*	*	*	*	*	*	*	*
*^	*	*^	*	*^	*	*	*	*	*	*	*	*	*	*	*	*	*	*	*	*	*	*	*
!	!	!	!	!	!	!	!	!	!	!	!	!	!	!	!	!	!	!	!	!	!	!	!	!	!	!LO:TX:b:t=[pp]
!	!	!	!	!	!	!	!	!	!	!	!	!	!	!LO:DY:a	!	!	!LO:DY:a	!	!LO:TX:b:i:t=short(without Ped.)	!	!LO:TX:b:t=[ppp]	!	!LO:TX:b:t=[ppp]	!	!	!LO:TX:a:B:t=108
4GG#X`v	4GG#	pp	4GG#X`v	4GG#	pp	4G#X`v	4G#	pp	2.r	.	2.r	.	8%3AA	>	8%3een'	Tre-	p	4GGG#X`	4G#X`	pp	4Re/	pp	4AA 4a	[2.a [2.een	pp	4een
4AA`	4AA	.	4AA`	4AA	.	4A`	4A	.	.	.	.	.	.	.	.	.	.	4AAA`	4A`	.	4r	.	4r	.	.	4r
.	.	.	.	.	.	.	.	.	.	.	.	.	8%3r	]	8%3a'	-mens..	.	.	.	.	.	.	.	.	.	.
4BBn`	4BB	.	4BBn`	4BB	.	4Bn`	4B	.	.	.	.	.	.	.	.	.	.	4BBBn`	4Bn`	.	4r	.	4r	.	.	4r
=	=	=	=	=	=	=	=	=	=	=	=	=	=	=	=	=	=	=	=	=	=	=	=	=	=	=
8F^L	4r	.	8F^L	4r	.	8f^L	4r	.	2.r	.	2.r	.	4r	.	4%3r	.	.	8FF^L	8F^L 8f	.	8Re\L	.	2.r	2.a_ 2.ee_	.	2.r
8AA^J	.	.	8AA^J	.	.	8A^J	.	.	.	.	.	.	.	.	.	.	.	8AAA^J 8AA	8A^J	.	8Re\J	.	.	.	.	.
4En^	4r	.	4En^	4r	.	4en^	4r	.	.	.	.	.	2ryy	.	.	.	.	4EEn^	4En^ 4en	.	4Re/	.	.	.	.	.
4GG#X`	4GG#	.	4GG#X`	4GG#	.	4G#X`	4G#	.	.	.	.	.	.	.	.	.	.	4GGG#X`	4G#X`	.	4r	.	.	.	.	.
=	=	=	=	=	=	=	=	=	=	=	=	=	=	=	=	=	=	=	=	=	=	=	=	=	=	=
4AA`	4AA	.	4AA`	4AA	.	4A`	4A	.	2.r	.	2.r	.	2r	.	8%3een'	fac-	.	4AAA`	4A`	.	4Re/	.	2.r	2.a_ 2.ee_	.	2.r
4BBn`	4BB	.	4BBn`	4BB	.	4Bn`	4B	.	.	.	.	.	.	.	.	.	.	4BBBn`	4Bn`	.	4r	.	.	.	.	.
.	.	.	.	.	.	.	.	.	.	.	.	.	.	.	8%3a'	-tus..	.	.	.	.	.	.	.	.	.	.
8C#X^L	4r	.	8C#X^L	4r	.	8c#X^L	4r	.	.	.	.	.	4ryy	.	.	.	.	8CC#X^L	8c#X^L	.	8Re\L	.	.	.	.	.
8G#X^J	.	.	8G#X^J	.	.	8g#X^J	.	.	.	.	.	.	.	.	.	.	.	8GG#X^J	8G#X^J 8g#X	.	8Re\J	.	.	.	.	.
=	=	=	=	=	=	=	=	=	=	=	=	=	=	=	=	=	=	=	=	=	=	=	=	=	=	=
4F#X^	4r	.	4F#X^	4r	.	4f#X^	4r	.	2.r	.	2.r	.	2.ryy	.	8%3r	.	.	4FF#X^	4F#X^ 4f#X	.	4Re/	.	2.r	2.a] 2.ee]	.	2.r
4AA#X`	4AA#	.	4AA#X`	4AA#	.	4A#X`	4A#	.	.	.	.	.	.	.	.	.	.	4AAA#X`	4A#X`	.	4r	.	.	.	.	.
.	.	.	.	.	.	.	.	.	.	.	.	.	.	.	8%3ff'	sum	.	.	.	.	.	.	.	.	.	.
4BB#X`	4BB#	.	4BB#X`	4BB#	.	4B#X`	4B#	.	.	.	.	.	.	.	.	.	.	4BBB#X`	4B#X`	.	4Re/	.	.	.	.	.
*	*	*	*	*	*	*	*	*	*	*	*	*	*	*	*	*	*	*	*clefG2	*	*	*	*	*	*	*
=	=	=	=	=	=	=	=	=	=	=	=	=	=	=	=	=	=	=	=	=	=	=	=	=	=	=
!	!	!LO:DY:a	!	!	!LO:DY:a	!	!	!LO:DY:a	!	!	!	!	!	!	!	!	!LO:DY:a	!	!	!	!	!	!	!	!	!
4C#X`	4C#	< <	4C#X`	4C#	< <	4c#X`	4c#	< <	2.r	.	2.r	.	2.r	.	8%3een'	e-	<	4CC#X`	4c#X`	<	4r	.	2.r	[2.a [2.een	.	2.r
4D#X`	4D#	.	4D#X`	4D#	.	4d#X`	4d#	.	.	.	.	.	.	.	.	.	.	4DD#X`	4d#X`	.	4Re/	<	.	.	.	.
.	.	.	.	.	.	.	.	.	.	.	.	.	.	.	8%3a'	-go	[	.	.	.	.	.	.	.	.	.
4E#X`	4E#	.	4E#X`	4E#	.	4e#X`	4e#	.	.	.	.	.	.	.	.	.	.	4EE#X`	4e#X`	.	4Re/	[[	.	.	.	.
=	=	=	=	=	=	=	=	=	=	=	=	=	=	=	=	=	=	=	=	=	=	=	=	=	=	=
8B#X^L	4B#^	[ [	8B#X^L	4B#^	[ [	8b#X^L	4b#^	[ [	2.r	.	2.r	.	2.r	.	4%3r	.	.	8BB#X^L	8B#X^L 8b#X	[	8Re\L	p	2.r	2.a_ 2.ee_	.	2.r
8E#X^J	.	.	8E#X^J	.	.	8e#X^J	.	.	.	.	.	.	.	.	.	.	.	8EE#X^J	8e#X^J	.	8Re\J	.	.	.	.	.
4A#X^	4r	.	4A#X^	4r	.	4a#X^	4r	.	.	.	.	.	.	.	.	.	.	4AA#X^	4A#X^ 4a#X	.	4Re/	.	.	.	.	.
!LO:TX:b:i:t=dim.	!	!	!LO:TX:b:i:t=dim.	!	!	!LO:TX:b:i:t=dim.	!	!	!	!	!	!	!	!	!	!	!	!	!	!	!	!	!	!	!	!
!LO:TX:a:t=dim.	!	!	!LO:TX:a:t=dim.	!	!	!LO:TX:a:t=dim.	!	!	!	!	!	!	!	!	!	!	!	!	!LO:TX:b:i:t=dim.	!	!	!	!	!	!	!
4G#X`	4G#	.	4G#X`	4G#	.	4g#X`	4g#	.	.	.	.	.	.	.	.	.	.	4GG#X`	4g#X`	.	4r	.	.	.	.	.
=	=	=	=	=	=	=	=	=	=	=	=	=	=	=	=	=	=	=	=	=	=	=	=	=	=	=
!	!	!	!	!	!	!	!	!	!	!	!	!	!	!	!	!	!LO:DY:a	!	!	!	!	!	!	!	!	!
4G`	4G	.	4G`	4G	.	4g`	4g	.	2.r	.	2.r	.	2.r	.	8%3een'	e-	pp	4GG`	4g`	.	4Re/	>	2.r	2.a_ 2.ee_	.	2.r
4Fni`	4F	.	4Fni`	4F	.	4fni`	4f	.	.	.	.	.	.	.	.	.	.	4FF`	4f`	.	4r	.	.	.	.	.
.	.	.	.	.	.	.	.	.	.	.	.	.	.	.	8%3a'	-go	.	.	.	.	.	.	.	.	.	.
8E-^L	4r	.	8E-^L	4r	.	8e-^L	4r	.	.	.	.	.	.	.	.	.	.	8EE-^L	4e-`	.	8Re\L	.	.	.	.	.
8AA-X^J	.	.	8AA-X^J	.	.	8A-X^J	.	.	.	.	.	.	.	.	.	.	.	8AAA-X^J 8AA-X	.	.	8Re\J	.	.	.	.	.
=	=	=	=	=	=	=	=	=	=	=	=	=	=	=	=	=	=	=	=	=	=	=	=	=	=	=
*	*	*	*	*	*	*	*	*	*^	*	*^	*	*	*	*	*	*	*	*	*	*	*	*	*	*	*
!	!	!LO:DY:a	!	!	!LO:DY:a	!	!	!LO:DY:a	!LO:TX:b:t=div. 1. arco spiccato        2. pizz.	!	!LO:DY:a	!LO:TX:b:t=div. 1. arco spiccato        2. pizz.	!	!LO:DY:a	!	!	!	!	!	!	!	!	!	!	!	!	!	!
4D-X^	4D-	> >	4D-X^	4D-	> >	4d-X^	4d-	> >	4a^u	4a	pp >	4aa^u	4aa	pp >	2.r	.	8%3r	.	.	4DD-X^	4aani`	pp < >	4Re/	.	2.r	2.a] 2.ee]	.	2.r
4C#X`	4C#	.	4C#X`	4C#	.	4c#X`	4c#	.	4cc#X`	4cc#	.	4ccc#X`	4ccc#	>	.	.	.	.	.	4CC#X`	4ccc#X`	.	4r	.	.	.	.	.
!	!	!	!	!	!	!	!	!	!	!	!	!	!	!	!	!	!LO:TX:a:t=cresc.	!	!	!	!	!	!	!	!	!	!	!
.	.	.	.	.	.	.	.	.	.	.	.	.	.	.	.	.	8%3een'	et	.	.	.	.	.	.	.	.	.	.
4BB-Xi`	4BB-	.	4BB-Xi`	4BB-	.	4B-Xi`	4B-	.	4bn`	4b	.	4bbn`	4bb	.	.	.	.	.	.	4BBB-Xi`	4bbn`	]]	4Re/	]]	.	.	.	.
*v	*v	*	*	*	*	*v	*v	*	*v	*v	*	*v	*v	*	*	*	*	*	*	*	*	*	*	*	*	*	*	*
*	*	*v	*v	*	*	*	*	*	*	*	*	*	*	*	*	*	*	*	*	*	*	*	*	*
=	=	=	=	=	=	=	=	=	=	=	=	=	=	=	=	=	=	=	=	=	=	=	=
*-	*-	*-	*-	*-	*-	*-	*-	*-	*-	*-	*-	*-	*-	*-	*-	*-	*-	*-	*-	*-	*-	*-	*-
!!!system-decoration: [(s1,s2,s3)]s4{(s5,s6)}[(s7,s8)][(s9,s10,s11,s12,s13)]
!!!RDF**kern: i = editorial accidental
